!!!!SEGMENT: pl-sa--438-a-viii-78_krzykowski-f--o-salutaris-hostia.krn
!!!cenid: 17xx:1740
!!!COM: Krzykowski, F.
!!!COM-rismid: pe30022248
!!!CDT:
!!!CNT:
!!!OTL: O salutaris hostia
!!!PDT:
!!!AGN: Sacred
!!!SMS-siglum: PL-SA
!!!SMS-shelfmark: 438/A VIII 78
!!!SMS-shelfwork: W
!!!SMS-variant:
!!!SMS-altvar:
!!!NIFC-rismid: 1001030102
!!!URL-scan: http://bc.bdsandomierz.pl/dlibra/publication/1745/edition/1713/content
!!!ONB-nifc: UWAGA: na tylnej okładce fragment innego utworu
!!!OMD:
!!!key: B-
**kern	**fba	**kern	**kern	**dynam	**kern	**text	**kern	**text
*part5	*part5	*part4	*part3	*part3	*part2	*part2	*part1	*part1
*staff5	*staff5	*staff4	*staff3	*	*staff2	*staff2	*staff1	*staff1
*I"Organo.	*	*I"Violino Secundo	*I"Violino Primo	*	*I"Canto Secundo	*	*I"Canto Primo	*
*I'org	*	*I'vl 2	*I'vl 1	*	*I'S 2	*	*I'S 1	*
*Iorgan	*	*Ivioln	*Ivioln	*	*Isoprn	*	*Isoprn	*
*ICklav	*	*ICstr	*ICstr	*	*ICvox	*	*ICvox	*
*clefF4	*	*clefG2	*clefG2	*	*clefC1	*	*clefC1	*
*	*	*ok[e-b-]	*ok[e-b-]	*	*	*	*	*
*k[b-e-]	*	*k[b-e-]	*k[b-e-]	*	*k[b-e-]	*	*k[b-e-]	*
*B-:	*	*B-:	*B-:	*	*B-:	*	*B-:	*
*M2/4	*	*M2/4	*M2/4	*	*M2/4	*	*M2/4	*
*all\right	*	*all\right	*all\right	*	*all\right	*	*all\right	*
*>[A,B,A]	*	*>[A,B,A]	*>[A,B,A]	*	*>[A,B,A]	*	*>[A,B,A]	*
*>A	*	*>A	*>A	*	*>A	*	*>A	*
!LO:TX:a:i:t=Andante Ariosiſsimo	!	!	!	!	!	!	!	!
!LO:TX:t=P:problem=w kolejnych systemach znaki [f-b-] lub [g-b-]	!	!	!	!	!	!	!	!
8r	.	8f/	8f/	.	8r	.	8r	.
=1	=1	=1	=1	=1	=1	=1	=1	=1
8BB-/L	.	16d/LL	4.b-\	.	0r	.	0r	.
.	.	16f/JJ	.	.	.	.	.	.
8D/	.	4b-/	.	.	.	.	.	.
8E-/	.	.	.	.	.	.	.	.
*	*	*	*Xtuplet	*	*	*	*	*
8F/J	.	8a/	24ff\LL	.	.	.	.	.
.	.	.	24dd\	.	.	.	.	.
.	.	.	24a\JJ	.	.	.	.	.
=2	=2	=2	=2	=2	=2	=2	=2	=2
8BB-/L	.	8f/	8b-\	.	.	.	.	.
8D/	.	4d/	4f/	.	.	.	.	.
8D/	.	.	.	.	.	.	.	.
8BB-/J	.	8c/	8e-/	.	.	.	.	.
=3	=3	=3	=3	=3	=3	=3	=3	=3
8BB-/L	.	16d/LL	24d/LL	.	.	.	.	.
.	.	.	24f/	.	.	.	.	.
.	.	16f/JJ	.	.	.	.	.	.
.	.	.	24b-/JJ	.	.	.	.	.
8D/	.	4b-/	4b-T\	.	.	.	.	.
8E-/	.	.	.	.	.	.	.	.
*	*	*Xtuplet	*	*	*	*	*	*
8F/J	.	24ff\LL	24ff\LL	.	.	.	.	.
.	.	24dd\	24dd\	.	.	.	.	.
.	.	24a\JJ	24a\JJ	.	.	.	.	.
=4	=4	=4	=4	=4	=4	=4	=4	=4
8BB-/L	.	8f/	8b-\	.	.	.	.	.
8D/	.	4d/	4f/	.	.	.	.	.
8D/	.	.	.	.	.	.	.	.
8C/J	.	8c/	8e-/	.	.	.	.	.
=5	=5	=5	=5	=5	=5	=5	=5	=5
8BB-/	.	24d/LL	24d/LL	.	0r	.	0r	.
.	.	24f/	24f/	.	.	.	.	.
.	.	24b-/JJ	24b-/JJ	.	.	.	.	.
8r	.	8b-\	8b-\	.	.	.	.	.
8BB-/	.	24d/LL	24d/LL	.	.	.	.	.
.	.	24f/	24f/	.	.	.	.	.
.	.	24b-/JJ	24b-/JJ	.	.	.	.	.
8r	.	8b-\	8b-\	.	.	.	.	.
=6	=6	=6	=6	=6	=6	=6	=6	=6
8F\	.	24e-/LL	24e-/LL	.	.	.	.	.
.	.	24a/	24a/	.	.	.	.	.
.	.	24cc/JJ	24cc/JJ	.	.	.	.	.
8r	.	24ee-\LL	24ee-\LL	.	.	.	.	.
.	.	24cc\	24cc\	.	.	.	.	.
.	.	24a\JJ	24a\JJ	.	.	.	.	.
8F\	.	24e-/LL	24e-/LL	.	.	.	.	.
.	.	24a/	24a/	.	.	.	.	.
.	.	24cc/JJ	24cc/JJ	.	.	.	.	.
8r	.	24ee-\LL	24ee-\LL	.	.	.	.	.
.	.	24cc\	24cc\	.	.	.	.	.
.	.	24a\JJ	24a\JJ	.	.	.	.	.
!	!	!LO:LB:g=original	!LO:LB:g=original	!	!	!	!	!
=7	=7	=7	=7	=7	=7	=7	=7	=7
8BB-/	.	24d/LL	24d/LL	.	.	.	.	.
.	.	24f/	24f/	.	.	.	.	.
.	.	24b-/JJ	24b-/JJ	.	.	.	.	.
8r	.	8b-\	8b-T\	.	.	.	.	.
!LO:LB:g=original	!	!	!	!	!	!	!	!
=-	=-	=-	=-	=-	=-	=-	=-	=-
8BB-/	.	24d/LL	24d/LL	.	.	.	.	.
.	.	24f/	24f/	.	.	.	.	.
.	.	24b-/JJ	24b-/JJ	.	.	.	.	.
8r	.	8b-\	8b-T\	.	.	.	.	.
=8	=8	=8	=8	=8	=8	=8	=8	=8
!	!	!LO:SIC:v:s=24e-/LL	!	!	!	!	!	!
8F\	.	24d/LL	24e-/LL	.	.	.	.	.
.	.	24f/	24a/	.	.	.	.	.
.	.	24a/JJ	24cc/JJ	.	.	.	.	.
8r	.	24ee-\LL	24ee-\LL	.	.	.	.	.
.	.	24cc\	24cc\	.	.	.	.	.
.	.	24a\JJ	24a\JJ	.	.	.	.	.
!	!	!LO:SIC:v:s=24e-/LL	!	!	!	!	!	!
8F\	.	24d/LL	24e-/LL	.	.	.	.	.
.	.	24f/	24a/	.	.	.	.	.
.	.	24a/JJ	24cc/JJ	.	.	.	.	.
8r	.	24ee-\LL	24ee-\LL	.	.	.	.	.
.	.	24cc\	24cc\	.	.	.	.	.
.	.	24a\JJ	24a\JJ	.	.	.	.	.
=9	=9	=9	=9	=9	=9	=9	=9	=9
!	!	!	!	!LO:DY:a	!	!	!	!
2r	.	16.ee-\LL	16.gg\LL	f	0r	.	0r	.
.	.	32dd\K	32ff\K	.	.	.	.	.
.	.	16.cc\	16.ee-\	.	.	.	.	.
.	.	32b-\JJk	32dd\JJk	.	.	.	.	.
.	.	24cc\LL	24cc\LL	.	.	.	.	.
.	.	24ee-\	24ee-\	.	.	.	.	.
.	.	24dd\JJ	24dd\JJ	.	.	.	.	.
.	.	16cc\LL	16cc\LL	.	.	.	.	.
.	.	16b-\JJ	16b-\JJ	.	.	.	.	.
=10	=10	=10	=10	=10	=10	=10	=10	=10
8F\L	.	8a/L	8a/L	.	.	.	.	.
8F\	.	8f/	8f/J	.	.	.	.	.
8F\	.	8f/	16r	.	.	.	.	.
.	.	.	16f/LL	.	.	.	.	.
8F\J	.	8f/J	16dd/	.	.	.	.	.
.	.	.	16f/JJ	.	.	.	.	.
=11	=11	=11	=11	=11	=11	=11	=11	=11
8F\L	.	8g/L	8f/L	.	.	.	.	.
8F\	.	8e-/	8e-/J	.	.	.	.	.
8F\	.	8e-/	16r	.	.	.	.	.
.	.	.	16e-/LL	.	.	.	.	.
8F\J	.	8e-/J	16cc/	.	.	.	.	.
.	.	.	16e-/JJ	.	.	.	.	.
=12	=12	=12	=12	=12	=12	=12	=12	=12
8r	.	24d/LL	24d/LL	.	.	.	.	.
.	.	24c/	24c/	.	.	.	.	.
.	.	24B-/JJ	24B-/JJ	.	.	.	.	.
8G\L	.	4bb-\	4bb-\	.	.	.	.	.
8F\	.	.	.	.	.	.	.	.
8E-\J	.	8bb-\	8bb-\	.	.	.	.	.
!	!	!	!LO:LB:g=original	!	!	!	!	!
=13	=13	=13	=13	=13	=13	=13	=13	=13
!LO:TX:t=P:problem=mixed beam	!	!	!	!	!	!	!	!
8D\L	.	24ff\LL	24ff\LL	.	1r	.	2r	.
.	.	24bb-\	24bb-\	.	.	.	.	.
.	.	24ff\JJ	24ff\JJ	.	.	.	.	.
!	!	!LO:LB:g=original	!	!	!	!	!	!
=-	=-	=-	=-	=-	=-	=-	=-	=-
8E-\	.	24dd\LL	24dd\LL	.	.	.	.	.
.	.	24ff\	24ff\	.	.	.	.	.
.	.	24dd\JJ	24dd\JJ	.	.	.	.	.
8F\	.	8b-\L	8dd\L	.	.	.	.	.
8FF/J	.	8a\J	8cc\J	.	.	.	.	.
=14	=14	=14	=14	=14	=14	=14	=14	=14
8BB-/L	.	8b-/L	8b-/L	.	.	.	4r	.
8FF/	.	16f/L	16f/L	.	.	.	.	.
.	.	16d/JJ	16d/JJ	.	.	.	.	.
8BB-/J	.	8B-/	8B-/	.	.	.	8r	.
8r	.	8r	8r	.	.	.	8b-\	O
=15	=15	=15	=15	=15	=15	=15	=15	=15
!	!	!	!	!LO:DY:a	!	!	!	!
1r	.	8B-/L	8d/L	p	2r	.	4ff\	Sa-
.	.	8B-/	8d/	.	.	.	.	.
*	*	*	*	*	*	*	*Xtuplet	*
.	.	8B-/	8e-/	.	.	.	24gg\LL	.
.	.	.	.	.	.	.	24ff\	.
.	.	.	.	.	.	.	24ee-\JJ	-lu-
.	.	8B-/J	8e-/J	.	.	.	24dd\LL	.
.	.	.	.	.	.	.	24cc\	.
.	.	.	.	.	.	.	24b-\JJ	.
=16	=16	=16	=16	=16	=16	=16	=16	=16
.	.	8d/L	8f/L	.	4r	.	8a\	-ta-
.	.	8d/	8f/	.	.	.	8b-\	-ris
.	.	8d/	8f/	.	8r	.	8r	.
.	.	8d/J	8f/J	.	8dd\	ho-	8ff\	ho-
=17	=17	=17	=17	=17	=17	=17	=17	=17
8E-\L	.	8g/L	8b-\L	.	4.ee-\	.	4.gg\	.
8E-\	.	8g/	8b-\	.	.	.	.	.
8E-\	.	8g/	8b-\	.	.	.	.	.
8E-\J	.	8g/J	8b-\J	.	8ee-\	.	16bb-\LL	.
.	.	.	.	.	.	.	16gg\JJ	.
!LO:LB:g=original	!	!	!	!	!	!	!	!
=18	=18	=18	=18	=18	=18	=18	=18	=18
8E-\L	.	8g/L	8b-\L	.	8ee-\	-sti-	8gg\	-sti-
8D\	.	8f/	8b-\	.	8dd\	-a	8ff\	-a
8D\	.	8f/	8b-\	.	8r	.	8r	.
8D\J	.	8f/J	8b-\J	.	8dd\	ho-	8ff\	ho-
=19	=19	=19	=19	=19	=19	=19	=19	=19
8F\L	.	8f/L	8a/L	.	4.cc\	.	4.ee-\	.
8F\	.	8f/	8a/	.	.	.	.	.
8F\	.	8f/	8a/	.	.	.	.	.
8F\J	.	8f/J	8a/J	.	8cc\	.	16gg\LL	.
.	.	.	.	.	.	.	16ee-\JJ	.
=20	=20	=20	=20	=20	=20	=20	=20	=20
8F\L	.	8f/L	8a/L	.	8cc\	-sti-	8ee-\	-sti-
8BB-\	.	8f/	8b-/	.	8b-\	-a	8dd\	-a
8BB-\	.	8f/	8b-/	.	4r	.	8r	.
8BB-\J	.	8f/J	8b-/J	.	.	.	8ff\	qua(e)
!	!	!	!	!	!	!	!LO:LB:g=original	!
=21	=21	=21	=21	=21	=21	=21	=21	=21
*	*	*	*	*	*	*	*2\right	*
4BB-/	.	8dd\L	(8ff\L	.	1r	.	2ff\	ca(e)-
.	.	8ee-\	8gg\)	.	.	.	.	.
4r	.	8dd\	(8ff\	.	.	.	.	.
.	.	8cc\J	8ee-\J)	.	.	.	.	.
.	.	.	.	.	.	.	16qqee-/	.
!	!	!	!LO:LB:g=original	!	!	!	!	!
=22	=22	=22	=22	=22	=22	=22	=22	=22
2r	.	8dd\L	(8ff\L	.	.	.	2ff\	-li
.	.	8ee-\	8gg\)	.	.	.	.	.
.	.	8dd\	(8ff\	.	.	.	.	.
.	.	8cc\J	8ee-\J)	.	.	.	.	.
.	.	.	.	.	.	.	16qqee-/	.
=23	=23	=23	=23	=23	=23	=23	=23	=23
8F\L	.	8cc\L	8ee-\L	.	16a\LL	pan-	(16cc\LL	pan-
.	.	.	.	.	16b-\JJ	.	16dd\JJ)	.
8F\	.	8cc\J	8ee-\	.	4cc\	.	4ee-\	.
!	!	!LO:LB:g=original	!	!	!	!	!	!
=-	=-	=-	=-	=-	=-	=-	=-	=-
8F\	.	8cc\L	8ee-\	.	.	.	.	.
!	!	!	!	!	!LO:LB:g=original	!	!	!
=-	=-	=-	=-	=-	=-	=-	=-	=-
*	*	*	*	*	*Xtuplet	*	*	*
8F\J	.	8cc\J	8ee-\J	.	24a\LL	.	24cc\LL	.
.	.	.	.	.	24b-\	.	24dd\	.
.	.	.	.	.	24cc\JJ	.	24ee-\JJ	.
=24	=24	=24	=24	=24	=24	=24	=24	=24
8BB-/L	.	8dd\L	8ff\L	.	16b-\LL	.	24dd\LL	.
.	.	.	.	.	.	.	24ee-\	.
.	.	.	.	.	16cc\JJ	.	.	.
.	.	.	.	.	.	.	24ff\JJ	.
8BB-/	.	8dd\	8ff\	.	4dd\	.	4ff\	.
8BB-/	.	8dd\	8ff\	.	.	.	.	.
8BB-/J	.	8dd\J	8ff\J	.	24b-\LL	.	24dd\LL	.
.	.	.	.	.	24cc\	.	24ee-\	.
.	.	.	.	.	24dd\JJ	.	24ff\JJ	.
=25	=25	=25	=25	=25	=25	=25	=25	=25
8F\L	.	8cc\L	8ee-\L	.	16a\LL	.	16cc\LL	.
.	.	.	.	.	16b-\JJ	.	16dd\JJ	.
8F\	.	8cc\	8ee-\	.	4cc\	.	4ee-\	.
8F\	.	8cc\	8ee-\	.	.	.	.	.
8F\J	.	8cc\J	8ee-\J	.	24a\LL	.	24cc\LL	.
.	.	.	.	.	24b-\	.	24dd\	.
.	.	.	.	.	24cc\JJ	.	24ee-\JJ	.
=26	=26	=26	=26	=26	=26	=26	=26	=26
8BB-/L	.	8dd\L	8ff\L	.	16b-\LL	.	16dd\LL	.
.	.	.	.	.	16cc\JJ	.	16ee-\JJ	.
8BB-/	.	8dd\	8ff\	.	4dd\	.	4ff\	.
8BB-/	.	8dd\	8ff\	.	.	.	.	.
8BB-/J	.	8dd\J	8ff\J	.	24b-\LL	.	24dd\LL	.
.	.	.	.	.	24cc\	.	24ee-\	.
.	.	.	.	.	24dd\JJ	.	24ff\JJ	.
!LO:LB:g=original	!	!	!	!	!	!	!	!
=27	=27	=27	=27	=27	=27	=27	=27	=27
4BB-/	.	8dd\	8ff\	.	8dd\	.	8ff\	.
.	.	8r	8r	.	4ee-\	.	4gg\	.
4r	.	8dd\	8ff\	.	.	.	.	.
.	.	8r	8r	.	8dd\	.	8ff\	.
=28	=28	=28	=28	=28	=28	=28	=28	=28
4F\	.	8dd\	8ff\	.	8dd\	.	8ff\	.
.	.	8r	8r	.	4cc\	.	4ee-\	.
4r	.	4r	4r	.	.	.	.	.
.	.	.	.	.	8b-\	-dis	8dd\	-dis
!	!	!	!	!	!LO:LB:g=original	!	!LO:LB:g=original	!
=29	=29	=29	=29	=29	=29	=29	=29	=29
8F\L	.	8b-/L	16dd\LL	.	(16b-|>\LL	Os-	16dd|>\LL	os-
.	.	.	16cc\J	.	16a|>\JJ)	-ti-	16cc|>\JJ	-ti-
8F\	.	8a/J	8cc\J	.	8a\	-um	8cc\	-um
8F\	.	4r	4r	.	8r	.	8r	.
8F\J	.	.	.	.	8a\	pan-	8cc\	qua(e)
=30	=30	=30	=30	=30	=30	=30	=30	=30
4F\	.	8a/	8cc\	.	8a\	.	(8cc\	Ca(e)-
.	.	4b-/	4dd\	.	4b-\	.	4dd\)	.
4r	.	.	.	.	.	.	.	.
.	.	8a/	8cc\	.	8a\	.	8cc|>\	-li
!	!	!	!LO:LB:g=original	!	!	!	!	!
=31	=31	=31	=31	=31	=31	=31	=31	=31
4F\	.	8a/	8cc\	.	8a\	.	(8cc\	pan-
.	.	4g/	4b-/	.	4g/	.	4b-\)	.
4r	.	.	.	.	.	.	.	.
.	.	8f/	8a/	.	8f/	-dis	8a|>\	-dis
=32	=32	=32	=32	=32	=32	=32	=32	=32
8C/L	.	8f/L	8a/L	.	16f/LL	os-	(16a|>\LL	o-
!	!	!	!	!	!LO:SIC:v:s=16en/JJ	!	!	!
.	.	.	.	.	16e-/JJ	-ti-	16g|>\JJ)	-sti-
!	!	!	!	!	!LO:SIC:v:s=8e/	!	!	!
8C/	.	8en/J	8g/J	.	8e-/	-um	8g\	-um
!	!	!LO:TX:t=P:problem=mixed beam	!LO:TX:t=P:problem=mixed beam	!LO:DY:a	!	!	!	!
8C/	.	16cc\LL	16cc\LL	f	4r	.	4r	.
.	.	16c/	16c/	.	.	.	.	.
8C/J	.	16enX/	16en/	.	.	.	.	.
.	.	16g/JJ	16g/JJ	.	.	.	.	.
!	!	!LO:LB:g=original	!	!	!	!	!	!
=33	=33	=33	=33	=33	=33	=33	=33	=33
8C/L	.	24b-\LL	24b-\LL	.	0r	.	0r	.
.	.	24een\	24een\	.	.	.	.	.
.	.	24gg\JJ	24gg\JJ	.	.	.	.	.
8C/	.	24bb-\LL	24bb-\LL	.	.	.	.	.
.	.	24gg\	24gg\	.	.	.	.	.
.	.	24ee\JJ	24ee\JJ	.	.	.	.	.
8C/	.	24b-\LL	24b-\LL	.	.	.	.	.
.	.	24ee\	24ee\	.	.	.	.	.
.	.	24gg\JJ	24gg\JJ	.	.	.	.	.
8C/J	.	24bb-\LL	24bb-\LL	.	.	.	.	.
.	.	24gg\	24gg\	.	.	.	.	.
.	.	24ee\JJ	24ee\JJ	.	.	.	.	.
=34	=34	=34	=34	=34	=34	=34	=34	=34
8C/	.	8ee-\	8gg\	.	.	.	.	.
8r	.	4a/	4cc\	.	.	.	.	.
4r	.	.	.	.	.	.	.	.
.	.	8g/	8b-\	.	.	.	.	.
=35	=35	=35	=35	=35	=35	=35	=35	=35
8C/L	.	24b-\LL	24b-\LL	.	.	.	.	.
.	.	24een\	24een\	.	.	.	.	.
.	.	24gg\JJ	24gg\JJ	.	.	.	.	.
8C/	.	24bb-\LL	24bb-\LL	.	.	.	.	.
.	.	24gg\	24gg\	.	.	.	.	.
.	.	24ee\JJ	24ee\JJ	.	.	.	.	.
8C/	.	24b-\LL	24b-\LL	.	.	.	.	.
.	.	24ee\	24ee\	.	.	.	.	.
.	.	24gg\JJ	24gg\JJ	.	.	.	.	.
8C/J	.	24bb-\LL	24bb-\LL	.	.	.	.	.
.	.	24gg\	24gg\	.	.	.	.	.
.	.	24ee\JJ	24ee\JJ	.	.	.	.	.
=36	=36	=36	=36	=36	=36	=36	=36	=36
8C/L	.	8cc/	8ff\	.	.	.	.	.
8C/	.	4a/	4cc\	.	.	.	.	.
8C/	.	.	.	.	.	.	.	.
8C/J	.	8g/	8b-\	.	.	.	.	.
!	!	!	!LO:LB:g=original	!	!	!	!	!
=37	=37	=37	=37	=37	=37	=37	=37	=37
8C/L	.	16.cc\LL	16.cc\LL	.	1r	.	1r	.
.	.	32bb-\JJk	32bb-\JJk	.	.	.	.	.
8AA/J	.	24aa\LL	24aa\LL	.	.	.	.	.
.	.	24gg\	24gg\	.	.	.	.	.
.	.	24ff\JJ	24ff\JJ	.	.	.	.	.
!LO:LB:g=original	!	!	!	!	!	!	!	!
=-	=-	=-	=-	=-	=-	=-	=-	=-
8BB-/L	.	4ggT\	4ggT\	.	.	.	.	.
8C/J	.	.	.	.	.	.	.	.
=38	=38	=38	=38	=38	=38	=38	=38	=38
!LO:TX:t=P:problem=mixed beam	!	!	!	!	!	!	!	!
8FF/L	.	4ff\	4ff\	.	.	.	.	.
16F\L	.	.	.	.	.	.	.	.
16E-X\JJ	.	.	.	.	.	.	.	.
8D/L	.	4r	4r	.	.	.	.	.
8C/J	.	.	.	.	.	.	.	.
=39	=39	=39	=39	=39	=39	=39	=39	=39
!	!	!	!	!LO:DY:a:t=Pia	!	!	!	!
8BB-/	.	8B-/L	8d/L	p	2r	.	4ff\	Bel-
8r	.	8B-/	8d/	.	.	.	.	.
4r	.	8B-/	8e-/	.	.	.	24gg\LL	.
.	.	.	.	.	.	.	24ff\	.
.	.	.	.	.	.	.	24ee-\JJ	.
.	.	8B-/J	8e-/J	.	.	.	24dd\LL	-la
.	.	.	.	.	.	.	24cc\	.
.	.	.	.	.	.	.	24b-\JJ	.
!	!	!LO:LB:g=original	!	!	!	!	!	!
=40	=40	=40	=40	=40	=40	=40	=40	=40
2r	.	8f/L	8f/L	.	4r	.	8a\	pre-
.	.	8f/	8f/	.	.	.	8b-\	-munt
.	.	8d/	8d/	.	8r	.	8r	.
.	.	8d/J	8d/J	.	8dd\	ho-	8ff\	ho-
=41	=41	=41	=41	=41	=41	=41	=41	=41
8E-\L	.	8g/L	8b-\L	.	4.ee-\	.	4.gg\	-sti-
8E-\	.	8g/	8b-\	.	.	.	.	.
8E-\	.	8g/	8b-\	.	.	.	.	.
8E-\J	.	8g/J	8b-\J	.	[y8ee-\	.	16bb-\LL	.
.	.	.	.	.	.	.	16gg\JJ	.
!	!	!	!	!	!	!	!LO:LB:g=original	!
=42	=42	=42	=42	=42	=42	=42	=42	=42
!	!	!	!	!	!LO:TX:t=P:problem=wg zapisu powinna tu być 16, ale to nie wypełnia taktu	!	!	!
!	!	!	!	!	!LO:N:xstem:cue	!	!	!
8E-\L	.	8g/L	8b-\L	.	8ee-\]	.	8gg\	-li-
8D\	.	8f/	8b-\	.	16ee-\	-sti-	8ff\	-a
.	.	.	.	.	16dd\	-lia	.	.
!	!	!	!	!	!LO:LB:g=original	!	!	!
=-	=-	=-	=-	=-	=-	=-	=-	=-
8D\	.	8f/	8b-\	.	8r	.	8r	.
8D\J	.	8f/J	8b-\J	.	8dd\	ho-	8ff\	da
=43	=43	=43	=43	=43	=43	=43	=43	=43
8F\L	.	8a/L	8cc\L	.	4.cc\	.	4.ee-\	ro-
8F\	.	8a/	8cc\	.	.	.	.	.
8F\	.	8a/	8cc\	.	.	.	.	.
8F\J	.	8a/J	8cc\J	.	[y8cc\	-ſti-	16gg\LL	.
.	.	.	.	.	.	.	16ee-\JJ	.
=44	=44	=44	=44	=44	=44	=44	=44	=44
!	!	!	!	!	!LO:TX:t=P:problem=wg zapisu powinna tu być 16, ale to nie wypełnia taktu	!	!	!
!	!	!	!	!	!LO:N:xstem:cue	!	!	!
8F\L	.	8f/L	8cc\L	.	8cc\]	.	8ee-\	.
8BB-\	.	8f/	8b-\	.	16cc\	-li-	8dd\	-bur
.	.	.	.	.	16b-\	-a	.	.
8BB-\	.	8f/	8b-\	.	8r	.	8r	.
8BB-\J	.	8f/J	8b-\J	.	8b-\	da	8dd\	da
=45	=45	=45	=45	=45	=45	=45	=45	=45
*	*	*	*	*	*2\right	*	*	*
!LO:TX:t=P:problem=mixed beam	!	!	!	!LO:DY:a	!	!	!	!
8BB-/L	.	24b-|>\LL	24b-|>\LL	p	2dd\	ro-	24b-\LL	.
.	.	24a|>\	24a|>\	.	.	.	24dd\	ro-
.	.	24b-|>\JJ	24b-|>\JJ	.	.	.	24b-\JJ	.
8BB-/	.	24ff|>\LL	24ff|>\LL	.	.	.	8ff\	.
.	.	24dd|>\	24dd|>\	.	.	.	.	.
.	.	24ff|>\JJ	24ff|>\JJ	.	.	.	.	.
8B-\	.	24b-|>\LL	24b-|>\LL	.	.	.	24b-\LL	.
.	.	24a|>\	24a|>\	.	.	.	24dd\	.
.	.	24b-|>\JJ	24b-|>\JJ	.	.	.	24b-\JJ	.
!	!	!	!LO:LB:g=original	!	!	!	!	!
=-	=-	=-	=-	=-	=-	=-	=-	=-
8B-\J	.	24ff|>\LL	24ff|>\LL	.	.	.	8ff\	.
.	.	24dd|>\	24dd|>\	.	.	.	.	.
.	.	24ff|>\JJ	24ff|>\JJ	.	.	.	.	.
=46	=46	=46	=46	=46	=46	=46	=46	=46
8B-\L	.	24ff|>\LL	24ff|>\LL	.	2dd\	.	16ff\LL	.
.	.	24dd|>\	24dd|>\	.	.	.	.	.
.	.	.	.	.	.	.	16dd\J	.
.	.	24ff|>\JJ	24ff|>\JJ	.	.	.	.	.
8B-\	.	24b-|>\LL	24b-|>\LL	.	.	.	8b-\J	.
.	.	24g|>\	24g|>\	.	.	.	.	.
.	.	24b-|>\JJ	24b-|>\JJ	.	.	.	.	.
8B-\	.	24ff|>\LL	24ff|>\LL	.	.	.	16ff\LL	.
.	.	24dd|>\	24dd|>\	.	.	.	.	.
.	.	.	.	.	.	.	16dd\J	.
.	.	24ff|>\JJ	24ff|>\JJ	.	.	.	.	.
8B-\J	.	24b-|>\LL	24b-|</LL	.	.	.	8b-\J	.
.	.	24g|>\	24g|</	.	.	.	.	.
.	.	24b-|>\JJ	24b-|</JJ	.	.	.	.	.
=47	=47	=47	=47	=47	=47	=47	=47	=47
8F\L	.	24a\LL	24a/LL	.	2cc\	.	24a\LL	.
.	.	24cc\	24cc/	.	.	.	24cc\	.
.	.	24a\JJ	24a/JJ	.	.	.	24a\JJ	.
8F\	.	24ee-X\LL	24ee-X|>\LL	.	.	.	8ee-X\	.
.	.	24cc\	24cc|>\	.	.	.	.	.
.	.	24ee-\JJ	24ee-|>\JJ	.	.	.	.	.
!	!	!LO:LB:g=original	!	!	!	!	!	!
=-	=-	=-	=-	=-	=-	=-	=-	=-
8F\	.	24a\LL	24a|>/LL	.	.	.	24a\LL	.
.	.	24cc\	24cc|>/	.	.	.	24cc\	.
.	.	24a\JJ	24a|>/JJ	.	.	.	24a\JJ	.
8F\J	.	24ee-\LL	24ee-|>\LL	.	.	.	8ee-\	.
.	.	24cc\	24cc|>\	.	.	.	.	.
.	.	24ee-\JJ	24ee-|>\JJ	.	.	.	.	.
!LO:LB:g=original	!	!	!	!	!	!	!LO:LB:g=original	!
=48	=48	=48	=48	=48	=48	=48	=48	=48
8F\L	.	24ee-\LL	24ee-|>\LL	.	2cc\	.	16ee-\LL	.
.	.	24cc\	24cc|>\	.	.	.	.	.
.	.	.	.	.	.	.	16cc\J	.
.	.	24ee-\JJ	24ee-|>\JJ	.	.	.	.	.
8F\	.	24cc\LL	24cc|>\LL	.	.	.	8a\J	.
.	.	24a\	24a|>\	.	.	.	.	.
.	.	24cc\JJ	24cc|>\JJ	.	.	.	.	.
8F\	.	24ee-\LL	24ee-|>\LL	.	.	.	16ee-\LL	.
.	.	24cc\	24cc|>\	.	.	.	.	.
.	.	.	.	.	.	.	16cc\J	.
.	.	24ee-\JJ	24ee-|>\JJ	.	.	.	.	.
8F\J	.	24cc\LL	24cc|>\LL	.	.	.	8a\J	.
.	.	24a\	24a|>\	.	.	.	.	.
.	.	24cc\JJ	24cc|>\JJ	.	.	.	.	.
=49	=49	=49	=49	=49	=49	=49	=49	=49
!	!	!	!	!LO:DY:a	!	!	!	!
4BB-/	.	16.dd\LL	16.ff\LL	p	16.dd\LL	.	16.ff\LL	.
.	.	32cc\K	32ee-X\K	.	32cc\K	.	32ee-X\K	.
.	.	16.b-\	16.dd\	.	16.b-\	.	16.dd\	.
!	!	!LO:TX:a:t=P:problem=♭ above	!	!	!	!	!	!
.	.	32a-X\JJk	32cc\JJk	.	32a-X\JJk	.	32cc\JJk	.
4D/	.	8g/L	8b-/L	.	8g/L	.	8b-\L	-bur
.	.	8f/J	8a-X/J	.	8f/J	.	8a-X\J	.
=50	=50	=50	=50	=50	=50	=50	=50	=50
!LO:TX:t=P:LO:SIC:v:s=8En\L ?:problem	!	!	!LO:SIC:v:s=16a-/LL	!	!	!	!	!
8E-\L	.	8f/L	16a/LL	.	16f/LL	.	(16a-X\LL	ro-
.	.	.	16g/J	.	16en/JJ	.	16g\JJ)	.
!LO:SIC:v:s=8En\J	!	!	!	!	!	!	!	!
8E-\J	.	8en/J	8g/J	.	8e/	-bur	8g\	-bur
!	!	!	!LO:LB:g=original	!	!	!	!	!
=-	=-	=-	=-	=-	=-	=-	=-	=-
8r	.	24b-\LL	24b-\LL	.	8r	.	8r	.
.	.	24g\	24g\	.	.	.	.	.
!	!	!LO:SIC:v:s=24een\JJ	!LO:SIC:v:s=24een\JJ	!	!	!	!	!
.	.	24ee-\JJ	24ee-\JJ	.	.	.	.	.
!	!	!LO:SIC:v:s=24een\LL	!LO:SIC:v:s=24een\LL	!	!	!	!	!
8C/	.	24ee-\LL	24ee-\LL	.	8een\	fer	8gg\	fer
.	.	24b-\	24b-\	.	.	.	.	.
.	.	24gg\JJ	24gg\JJ	.	.	.	.	.
!	!	!	!	!	!LO:LB:g=original	!	!	!
=51	=51	=51	=51	=51	=51	=51	=51	=51
!	!	!	!	!LO:DY:a:t=Pia	!LO:SIC:v:s=16.een\LL	!	!	!
4C/	.	16.een\LL	16.gg\LL	p	16.ee-\LL	.	16gg\LL	.
.	.	.	.	.	.	.	16ff\	.
.	.	32dd\K	32ff\K	.	32dd\K	.	.	.
!	!	!	!	!	!	!	!LO:SIC:v:s=16een\	!
.	.	16.cc\	16.een\	.	16.cc\	au-	16ee-\	au-
.	.	.	.	.	.	.	16dd\JJ	.
.	.	32b-\JJk	32dd\JJk	.	32b-\JJk	.	.	.
4En\	.	8an/L	8cc\L	.	8an\L	.	8cc\L	.
.	.	8g/J	8b-\J	.	8g\J	.	8b-\J	.
=52	=52	=52	=52	=52	=52	=52	=52	=52
8F\L	.	8g/L	16b-\LL	.	16g/	-xi-	16b-\	-xi-
.	.	.	16a\J	.	16f/	-li-	16a\	-li-
!	!	!	!	!LO:DY:a	!	!	!	!
8F\	.	8f/J	8a\J	f	8f/	-um	8a\	-um
!	!	!LO:TX:t=P:problem=mixed beam	!LO:TX:t=P:problem=mixed beam	!	!	!	!	!
8F\	.	24a/LL	24a/LL	.	4r	.	4r	.
.	.	24f/	24f/	.	.	.	.	.
.	.	24ff\JJ	24ff\JJ	.	.	.	.	.
!	!	!LO:TX:t=P:problem=mixed beam	!LO:TX:t=P:problem=mixed beam	!	!	!	!	!
8F\J	.	24ff\LL	24ff\LL	.	.	.	.	.
.	.	24a/	24a/	.	.	.	.	.
.	.	24aa\JJ	24aa\JJ	.	.	.	.	.
=53	=53	=53	=53	=53	=53	=53	=53	=53
!	!	!	!	!LO:DY:a:t=P.	!	!	!	!
8F\L	.	8cc\L	(16ee-X\LL	p	4cc\	U-	4ee-\	U-
.	.	.	16cc\)	.	.	.	.	.
8F\	.	8a\J	(16cc\	.	.	.	.	.
.	.	.	16a\JJ)	.	.	.	.	.
!	!	!LO:LB:g=original	!	!	!	!	!	!
=-	=-	=-	=-	=-	=-	=-	=-	=-
8F\	.	8f/L	(16a\LL	.	4cc\	-ni	4ee-\	-ni
.	.	.	16f\)	.	.	.	.	.
8F\J	.	8a/J	(16f\	.	.	.	.	.
.	.	.	16ee-\JJ)	.	.	.	.	.
=54	=54	=54	=54	=54	=54	=54	=54	=54
8F\L	.	8a/L	8cc\L	.	16a\LL	.	16cc\LL	Tri-
.	.	.	.	.	16b-\	Tri-	16dd\	.
8F\	.	8b-/	8dd\	.	16b-\	.	16dd\	.
.	.	.	.	.	16a\JJ	.	16cc\JJ	.
!	!	!	!	!	!	!	!LO:LB:g=original	!
=-	=-	=-	=-	=-	=-	=-	=-	=-
8F\	.	8a/	8cc\	.	16a\LL	.	16cc\LL	.
.	.	.	.	.	16b-\	.	16dd\	.
8F\J	.	8b-/J	8dd\J	.	16b-\	.	16dd\	.
.	.	.	.	.	16a\JJ	.	16cc\JJ	.
=55	=55	=55	=55	=55	=55	=55	=55	=55
8F\L	.	8b-/L	8dd\L	.	8b-\	-no-	8dd\	-no-
8F\	.	8a/J	8cc\J	.	8a\	-q(ue)	8cc\	-que
8F\	.	24a/LL	24a\LL	.	4r	.	4r	.
.	.	24f/	24f\	.	.	.	.	.
.	.	24cc/JJ	24cc\JJ	.	.	.	.	.
8F\J	.	24ff\LL	24ff\LL	.	.	.	.	.
.	.	24cc\	24cc\	.	.	.	.	.
.	.	24a\JJ	24a\JJ	.	.	.	.	.
=56	=56	=56	=56	=56	=56	=56	=56	=56
8F\L	.	8cc\L	16ee-X\LL	.	4cc\	U-	4ee-\	U-
.	.	.	16cc\	.	.	.	.	.
8F\	.	8a\	16cc\	.	.	.	.	.
.	.	.	16a\JJ	.	.	.	.	.
8F\	.	8f\	16a\LL	.	4cc\	-ni	4ee-\	-ni
.	.	.	16f\	.	.	.	.	.
8F\J	.	8cc\J	16f\	.	.	.	.	.
!	!	!	!LO:TX:b:i:t=Cito Verte	!	!	!	!	!
.	.	.	16ff\JJ	.	.	.	.	.
!	!	!	!LO:PB:g=original	!	!	!	!	!
=57	=57	=57	=57	=57	=57	=57	=57	=57
8F\L	.	8a/L	8ee-\L	.	16a\LL	.	16cc\LL	.
.	.	.	.	.	16b-\	.	16dd\	.
8F\	.	8b-/	8ff\J	.	16b-\	Tri-	16dd\	Tri-
.	.	.	.	.	16a\JJ	.	16cc\JJ	.
!	!	!	!LO:TX:t=P:problem=wg zapisu powinna tu być 16, ale to nie wypełnia taktu	!	!LO:TX:t=P:problem=takt niepełny	!	!	!
8F\	.	8a/	8ee-\L	.	4a\yy	.	16cc\LL	.
.	.	.	.	.	.	.	16dd\	.
8F\J	.	8b-/J	8ff\J	.	.	.	16dd\	.
.	.	.	.	.	.	.	16cc\JJ	.
!LO:LB:g=original	!	!	!	!	!LO:LB:g=original	!	!	!
=58	=58	=58	=58	=58	=58	=58	=58	=58
8F\L	.	8b-/L	8ff\L	.	8b-\	-no-	8dd\	-no-
8F\	.	8a/J	8ee-\J	.	8a\	-q(ue)	8cc\	-que
8F\	.	24a/LL	24a\LL	.	4r	.	4r	.
.	.	24f/	24f\	.	.	.	.	.
.	.	24cc/JJ	24cc\JJ	.	.	.	.	.
8F\J	.	24ff\LL	24ff\LL	.	.	.	.	.
.	.	24cc\	24cc\	.	.	.	.	.
.	.	24a\JJ	24a\JJ	.	.	.	.	.
=59	=59	=59	=59	=59	=59	=59	=59	=59
8F\L	.	16b-\LL	16dd\LL	.	[4b-\	Do-	[4dd\	Do-
.	.	16b-\	16dd\	.	.	.	.	.
8F\	.	16b-\	16dd\	.	.	.	.	.
.	.	16b-\JJ	16dd\JJ	.	.	.	.	.
8F\	.	16b-\LL	16dd\LL	.	4b-\_y	.	4dd\_	.
.	.	16b-\	16dd\	.	.	.	.	.
8F\J	.	16b-\	16dd\	.	.	.	.	.
.	.	16b-\JJ	16dd\JJ	.	.	.	.	.
=60	=60	=60	=60	=60	=60	=60	=60	=60
!	!	!	!	!	!LO:N:xstem:cue	!	!LO:N:xstem:cue	!
8F\L	.	8b-/L	8dd\L	.	8b-\]	.	8dd\]	.
8F\	.	8a/J	8cc\J	.	16b-\	-mi-	16dd\	-mi-
.	.	.	.	.	16a\	-no	16cc\	-no
8F\J	.	4r	4r	.	4r	.	4r	.
8r	.	.	.	.	.	.	.	.
!	!	!LO:PB:g=original	!	!	!	!	!LO:PB:g=original	!
=61	=61	=61	=61	=61	=61	=61	=61	=61
8E-\L	.	16.ee-T\LL	16.gg\LL	.	2ee-\	ſit	2gg\	ſit
!	!	!LO:N:vis=32	!LO:N:vis=32	!	!	!	!	!
.	.	64g\LL	64ee-\LL	.	.	.	.	.
!	!	!LO:N:vis=32	!LO:N:vis=32	!	!	!	!	!
.	.	64ee-\JJJJ	64gg\JJJJ	.	.	.	.	.
8E-\	.	16ee-\LL	16gg\LL	.	.	.	.	.
.	.	16ee-\JJ	16gg\JJ	.	.	.	.	.
8E-\	.	16.ee-T\LL	16.gg\LL	.	.	.	.	.
!	!	!LO:N:vis=32	!LO:N:vis=32	!	!	!	!	!
.	.	64g\LL	64ee-\LL	.	.	.	.	.
!	!	!LO:N:vis=32	!LO:N:vis=32	!	!	!	!	!
.	.	64ee-\JJJJ	64gg\JJJJ	.	.	.	.	.
8E-\J	.	16ee-\LL	16gg\LL	.	.	.	.	.
.	.	16ee-\JJ	16gg\JJ	.	.	.	.	.
=62	=62	=62	=62	=62	=62	=62	=62	=62
4E-\	.	8ee-\L	8gg\L	.	(8ee-\L	ſem-	(8gg\L	ſem-
.	.	8dd\J	8ff\	.	(8dd\J)	.	8ff\J	.
4r	.	8ee-\L	8gg\	.	8ee-\)	.	8gg\)	.
.	.	8dd\J	8ff\J	.	8dd|>\	-pi-	8ff\	-pi-
=63	=63	=63	=63	=63	=63	=63	=63	=63
8F\L	.	8dd\L	8ff\L	.	8dd\	-ter-	8ff\	-ter-
8F\	.	8cc\J	8ee-\J	.	8cc\	-na	8ee-\	-na
!	!	!	!	!LO:DY:a	!	!	!	!
8F\	.	24ee-\LL	24ee-|>\LL	f	4r	.	4r	.
.	.	24cc\	24cc|>\	.	.	.	.	.
.	.	24a\JJ	24a|>\JJ	.	.	.	.	.
8F\J	.	24a\LL	24a'\LL	.	.	.	.	.
.	.	24cc\	24cc'\	.	.	.	.	.
.	.	24ee-\JJ	24ee-'\JJ	.	.	.	.	.
!	!	!	!LO:LB:g=original	!	!	!	!	!
=64	=64	=64	=64	=64	=64	=64	=64	=64
8F\L	.	16.ddt\LL	16ff\LL	.	2dd\	glo-	2ff\	glo-
.	.	.	32dd\L	.	.	.	.	.
!	!	!LO:N:vis=32	!	!	!	!	!	!
.	.	64f\LL	32ff\JJJ	.	.	.	.	.
!	!	!LO:N:vis=32	!	!	!	!	!	!
.	.	64dd\JJJJ	.	.	.	.	.	.
8F\	.	16dd\LL	16ff\LL	.	.	.	.	.
.	.	16dd\JJ	16ff\JJ	.	.	.	.	.
8F\	.	16.ddt\LL	16.ff\LL	.	.	.	.	.
!	!	!LO:N:vis=32	!LO:N:vis=32	!	!	!	!	!
.	.	64f\LL	64dd\LL	.	.	.	.	.
!	!	!LO:N:vis=32	!LO:N:vis=32	!	!	!	!	!
.	.	64dd\JJJJ	64ff\JJJJ	.	.	.	.	.
8F\J	.	16dd\LL	16ff\LL	.	.	.	.	.
.	.	16dd\JJ	16ff\JJ	.	.	.	.	.
!	!	!	!	!	!LO:PB:g=original	!	!	!
=65	=65	=65	=65	=65	=65	=65	=65	=65
4F\	.	8dd\L	8ff\L	.	(8dd\L	.	(8ff\L	.
.	.	8cc\J	8ee-\J	.	8cc\J)	.	8ee-\J)	.
4r	.	8dd\L	8ff\L	.	8dd\	.	(8ff\	.
.	.	8cc\J	8ee-\J	.	8cc\	.	8ee-\)	.
=66	=66	=66	=66	=66	=66	=66	=66	=66
8BB-/L	.	8cc\L	8ee-\L	.	8cc\	-ri-	8ee-\	-ri-
8BB-/	.	8b-\J	8dd\J	.	8b-\	-a	16dd\	-a
.	.	.	.	.	.	.	16dd\	.
8BB-/J	.	4r	4r	.	4r	.	8r	.
8r	.	.	.	.	.	.	8f/	ſit
=67	=67	=67	=67	=67	=67	=67	=67	=67
4BB-/	.	2r	2r	.	4r	.	8b-\	ſem-
.	.	.	.	.	.	.	8cc\	-pi-
4r	.	.	.	.	8b-\	glo-	8dd\	-ter-
.	.	.	.	.	8cc\	-ri-	8ee-\	-na
!LO:PB:g=original	!	!	!	!	!	!	!LO:LB:g=original	!
=68	=68	=68	=68	=68	=68	=68	=68	=68
*	*	*2\right	*2\right	*	*	*	*	*
8BB-/L	.	2dd\	2ff\	.	2dd\	-a	2ff\	glo-
8C/	.	.	.	.	.	.	.	.
8D/	.	.	.	.	.	.	.	.
8BB-/J	.	.	.	.	.	.	.	.
!	!	!LO:LB:g=original	!	!	!	!	!	!
=69	=69	=69	=69	=69	=69	=69	=69	=69
8BB-/L	.	8ff\L	8ff\L	.	2r	.	8ff\L	.
8BB-/	.	16gg\L	16gg\L	.	.	.	16gg\L	.
.	.	16aa\JJ	16aa\JJ	.	.	.	16aa\JJ	.
8D/	.	8bb-\L	8bb-\L	.	.	.	8gg\L	.
!	!	!LO:TX:t=P:problem=g poprawione na es	!	!	!	!	!	!
8E-/J	.	8ee-\J	8ee-\J	.	.	.	8ee-\J	.
=70	=70	=70	=70	=70	=70	=70	=70	=70
4F\	.	24dd\LL	24dd|>\LL	.	4dd\	glo-	24dd\LL	.
.	.	24cc\	24cc|>\	.	.	.	24cc\	.
.	.	24b-\JJ	24b-|>\JJ	.	.	.	24b-\JJ	.
.	.	24ee-\LL	24ee-|>\LL	.	.	.	24ee-\LL	.
.	.	24dd\	24dd|>\	.	.	.	24dd\	.
.	.	24cc\JJ	24cc|>\JJ	.	.	.	24cc\JJ	.
4FF/	.	8.a/L	8.dd\L	.	4cc\	-ri-	8.cc\	.
.	.	16a/Jk	16cc\Jk	.	.	.	16cc\	-ri-
=71	=71	=71	=71	=71	=71	=71	=71	=71
8BB-/L	.	4b-\	4b-\	.	4b-\	-a	4b-\	-a
8BB-/	.	.	.	.	.	.	.	.
8BB-/J	.	4r	4r	.	4r	.	8r	.
8r	.	.	.	.	.	.	8f/	ſit
!	!	!	!LO:LB:g=original	!	!	!	!	!
=72	=72	=72	=72	=72	=72	=72	=72	=72
!LO:TX:t=P:problem=brak jednego taktu	!	!	!	!	!	!	!	!
4BB-/yy	.	2r	2r	.	4r	.	8b-\	ſem-
.	.	.	.	.	.	.	8cc\	-pi-
4ryy	.	.	.	.	8b-\	glo-	8dd\	-ter-
.	.	.	.	.	8cc\	-ri-	8ee-\	-na
=73	=73	=73	=73	=73	=73	=73	=73	=73
8BB-/L	.	2ddt\	2ff\	.	2dd\	-a	2ff\	glo-
8C/	.	.	.	.	.	.	.	.
8D/	.	.	.	.	.	.	.	.
8BB-/J	.	.	.	.	.	.	.	.
!	!	!	!	!	!LO:LB:g=original	!	!	!
=74	=74	=74	=74	=74	=74	=74	=74	=74
!	!	!	!	!	!LO:TX:t=P:problem=brak jednego taktu pauzy	!	!	!
8BB-\L	.	8ff\L	8ff\L	.	2ryy	.	8ff\L	.
!	!	!LO:SIC:v:s=16cc\L	!	!	!	!	!	!
8BB-\	.	16aa\L	16gg\L	.	.	.	16gg\L	.
!	!	!LO:SIC:v:s=16aa\JJ	!	!	!	!	!	!
.	.	16bb-\JJ	16aa\JJ	.	.	.	16aa\JJ	.
8D\	.	8bb-\L	8bb-\L	.	.	.	8bb-\L	.
8E-\J	.	8ee-\J	8ee-\J	.	.	.	8ee-\J	.
!	!	!	!	!	!	!	!LO:LB:g=original	!
=75	=75	=75	=75	=75	=75	=75	=75	=75
4F\	.	24dd\LL	24dd|>\LL	.	4dd\	glo-	24dd\LL	.
.	.	24cc\	24cc|>\	.	.	.	24cc\	.
.	.	24b-\JJ	24b-|>\JJ	.	.	.	24b-\JJ	.
.	.	24ee-\LL	24ee-|>\LL	.	.	.	24ee-\LL	.
.	.	24dd\	24dd|>\	.	.	.	24dd\	.
.	.	24cc\JJ	24cc|>\JJ	.	.	.	24cc\JJ	.
4FF/	.	8.a/L	8.cc\L	.	4cc\	-ri-	8.cc\	.
.	.	16a/Jk	16cc\Jk	.	.	.	16cc\	-ri-
=76	=76	=76	=76	=76	=76	=76	=76	=76
8BB-/L	.	24b-\LL	24b-\LL	.	4b-\	-a	4b-\	-a
.	.	24dd\	24dd\	.	.	.	.	.
.	.	24b-\JJ	24b-\JJ	.	.	.	.	.
8BB-/	.	24ff\LL	24ff\LL	.	.	.	.	.
.	.	24dd\	24dd\	.	.	.	.	.
.	.	24b-\JJ	24b-\JJ	.	.	.	.	.
=-	=-	=-	=-	=-	=-	=-	=-	=-
8BB-/	.	24b-\LL	24b-\LL	.	4r	.	4r	.
.	.	24dd\	24dd\	.	.	.	.	.
.	.	24b-\JJ	24b-\JJ	.	.	.	.	.
8BB-/J	.	24ff\LL	24ff\LL	.	.	.	.	.
.	.	24dd\	24dd\	.	.	.	.	.
.	.	24b-\JJ	24b-\JJ	.	.	.	.	.
=77	=77	=77	=77	=77	=77	=77	=77	=77
8D\L	.	8.aa-X\L	8.aa-XT\L	.	0r	.	0r	.
8D\	.	.	.	.	.	.	.	.
.	.	32gg\LL	32gg\LL	.	.	.	.	.
.	.	32aa-\JJJ	32aa-\JJJ	.	.	.	.	.
8E-\	.	8.gg\L	8.ggt\L	.	.	.	.	.
8E-\J	.	.	.	.	.	.	.	.
.	.	32ff\LL	32ff\LL	.	.	.	.	.
.	.	32gg\JJJ	32gg\JJJ	.	.	.	.	.
!LO:LB:g=original	!	!	!	!	!	!	!	!
=78	=78	=78	=78	=78	=78	=78	=78	=78
8C/L	n	24cc\LL	24cc\LL	.	.	.	.	.
.	.	24een\	24een\	.	.	.	.	.
.	.	24cc\JJ	24cc\JJ	.	.	.	.	.
8C/	.	24gg\LL	24gg\LL	.	.	.	.	.
.	.	24een\	24een\	.	.	.	.	.
.	.	24cc\JJ	24cc\JJ	.	.	.	.	.
!	!	!	!LO:LB:g=original	!	!	!	!	!
=-	=-	=-	=-	=-	=-	=-	=-	=-
8C/	.	24cc\LL	24cc\LL	.	.	.	.	.
.	.	24ee\	24ee\	.	.	.	.	.
.	.	24cc\JJ	24cc\JJ	.	.	.	.	.
8C/J	.	24gg\LL	24gg\LL	.	.	.	.	.
.	.	24ee\	24ee\	.	.	.	.	.
.	.	24cc\JJ	24cc\JJ	.	.	.	.	.
=79	=79	=79	=79	=79	=79	=79	=79	=79
8En\L	.	8.ggT\L	8.bb-T\L	.	.	.	.	.
8E\	.	.	.	.	.	.	.	.
.	.	32een\LL	32aan\LL	.	.	.	.	.
.	.	32gg\JJJ	32bb-\JJJ	.	.	.	.	.
8F\	.	8.ff\L	8.aat\L	.	.	.	.	.
8F\J	.	.	.	.	.	.	.	.
.	.	32cc\LL	32gg\LL	.	.	.	.	.
.	.	32ff\JJJ	32aa\JJJ	.	.	.	.	.
=80	=80	=80	=80	=80	=80	=80	=80	=80
8D\L	6	24ff\LL	24ff|>\LL	.	.	.	.	.
.	.	24dd\	24dd|>\	.	.	.	.	.
.	.	24b-\JJ	24b-|>\JJ	.	.	.	.	.
!	!	!	!LO:SIC:v:s=24f|>\LL	!	!	!	!	!
8D\	.	24f\LL	24g|>\LL	.	.	.	.	.
.	.	24b-\	24b-|>\	.	.	.	.	.
.	.	24dd\JJ	24dd|>\JJ	.	.	.	.	.
8D\	.	24ff\LL	24ff|>\LL	.	.	.	.	.
.	.	24dd\	24dd|>\	.	.	.	.	.
.	.	24b-\JJ	24b-|>\JJ	.	.	.	.	.
!	!	!	!LO:SIC:v:s=24f|>\LL	!	!	!	!	!
8D\J	.	24f\LL	24g|>\LL	.	.	.	.	.
.	.	24b-\	24b-|>\	.	.	.	.	.
.	.	24dd\JJ	24dd|>\JJ	.	.	.	.	.
=81	=81	=81	=81	=81	=81	=81	=81	=81
4E-\	.	(16ee-\LL	16gg\LL	.	0r	.	0r	.
.	.	16cc\)	16ee-X\	.	.	.	.	.
.	.	(16cc\	16ee-\	.	.	.	.	.
.	.	16a\JJ)	16cc\JJ	.	.	.	.	.
!	!	!LO:LB:g=original	!	!	!	!	!	!
=-	=-	=-	=-	=-	=-	=-	=-	=-
4r	.	16a/LL	16cc\LL	.	.	.	.	.
.	.	16f/	16a\	.	.	.	.	.
.	.	16f/	16a\	.	.	.	.	.
.	.	16e-/JJ	16f\JJ	.	.	.	.	.
=82	=82	=82	=82	=82	=82	=82	=82	=82
8C/L	6	24ee-\LL	24ee-\LL	.	.	.	.	.
.	.	24cc\	24cc\	.	.	.	.	.
.	.	24a\JJ	24a\JJ	.	.	.	.	.
8C/	.	24f\LL	24f\LL	.	.	.	.	.
.	.	24a\	24a\	.	.	.	.	.
.	.	24cc\JJ	24cc\JJ	.	.	.	.	.
8C/	.	24ee-\LL	24ee-\LL	.	.	.	.	.
.	.	24cc\	24cc\	.	.	.	.	.
.	.	24a\JJ	24a\JJ	.	.	.	.	.
8C/J	.	24f\LL	24f\LL	.	.	.	.	.
.	.	24a\	24a\	.	.	.	.	.
.	.	24cc\JJ	24cc\JJ	.	.	.	.	.
!	!	!	!LO:LB:g=original	!	!	!	!	!
=83	=83	=83	=83	=83	=83	=83	=83	=83
4D\	.	16dd\LL	(16ff\LL	.	.	.	.	.
.	.	16b-\	16dd\	.	.	.	.	.
.	.	16b-\	16dd\)	.	.	.	.	.
.	.	16f\JJ	16b-\JJ	.	.	.	.	.
4r	.	16f/LL	16b-\LL	.	.	.	.	.
.	.	16d/	16f\	.	.	.	.	.
.	.	16d/	16f\	.	.	.	.	.
.	.	16B-/JJ	16d\JJ	.	.	.	.	.
=84	=84	=84	=84	=84	=84	=84	=84	=84
8BB-/L	5	24dd\LL	24dd\LL	.	.	.	.	.
.	.	24b-\	24b-\	.	.	.	.	.
.	.	24g\JJ	24g\JJ	.	.	.	.	.
8BB-/	.	24d/LL	24d/LL	.	.	.	.	.
.	.	24f/	24f/	.	.	.	.	.
.	.	24b-/JJ	24b-/JJ	.	.	.	.	.
8BB-/	.	24dd\LL	24dd\LL	.	.	.	.	.
.	.	24b-\	24b-\	.	.	.	.	.
.	.	24g\JJ	24g\JJ	.	.	.	.	.
8BB-/J	.	24d/LL	24d/LL	.	.	.	.	.
.	.	24f/	24f/	.	.	.	.	.
.	.	24b-/JJ	24b-/JJ	.	.	.	.	.
=85	=85	=85	=85	=85	=85	=85	=85	=85
4C/	6	16cc\LL	16ee-\LL	.	0r	.	0r	.
.	.	(16a\	(16cc\	.	.	.	.	.
.	.	(16a\)	(16cc\)	.	.	.	.	.
.	.	16f\JJ)	16a\JJ)	.	.	.	.	.
4r	.	(16f/LL	(16a/LL	.	.	.	.	.
.	.	16d/)	16f/)	.	.	.	.	.
.	.	(16d/	(16f/	.	.	.	.	.
.	.	16c/JJ)	16e-/JJ)	.	.	.	.	.
=86	=86	=86	=86	=86	=86	=86	=86	=86
8BB-/L	.	8c/L	8e-/L	.	.	.	.	.
8BB-/	.	8B-/J	8d/J	.	.	.	.	.
8BB-/	.	4r	4r	.	.	.	.	.
8BB-/J	.	.	.	.	.	.	.	.
!	!	!LO:LB:g=original	!	!	!	!	!	!
=87	=87	=87	=87	=87	=87	=87	=87	=87
8BB-/L	.	24b-\LL	24b-|>\LL	.	.	.	.	.
.	.	24dd\	24dd|>\	.	.	.	.	.
.	.	24b-\JJ	24b-|>\JJ	.	.	.	.	.
8BB-/	.	24ff\LL	24ff|>\LL	.	.	.	.	.
.	.	24dd\	24dd|>\	.	.	.	.	.
.	.	24ff\JJ	24ff|>\JJ	.	.	.	.	.
8BB-/	.	8gg\L	8bb-\L	.	.	.	.	.
8BB-/J	.	8ee-\J	8gg\J	.	.	.	.	.
!LO:LB:g=original	!	!	!	!	!	!	!	!
=88	=88	=88	=88	=88	=88	=88	=88	=88
8BB-/L	.	24b-\LL	24b-|>\LL	.	.	.	.	.
.	.	24dd\	24dd|>\	.	.	.	.	.
.	.	24b-\JJ	24b-|>\JJ	.	.	.	.	.
8BB-/	.	24ff\LL	24ff\LL	.	.	.	.	.
.	.	24dd\	24dd\	.	.	.	.	.
.	.	24ff\JJ	24ff\JJ	.	.	.	.	.
!	!	!	!LO:LB:g=original	!	!	!	!	!
=-	=-	=-	=-	=-	=-	=-	=-	=-
8BB-/	.	8gg\L	8bb-\L	.	.	.	.	.
8BB-/J	.	8ee-\J	8gg\J	.	.	.	.	.
=89	=89	=89	=89	=89	=89	=89	=89	=89
!LO:TX:t=P:problem=mixed beam	!	!	!	!	!	!	!	!
8BB-\L	.	24dd'\LL	24dd|>\LL	.	1r	.	1r	.
.	.	24ee-'\	24ee-|>\	.	.	.	.	.
.	.	24ff'\JJ	24ff'\JJ	.	.	.	.	.
8E-\	.	24gg'\LL	24gg|>\LL	.	.	.	.	.
.	.	24aa'\	24aa|>\	.	.	.	.	.
.	.	24bb-'\JJ	24bb-|>\JJ	.	.	.	.	.
8F\	.	8b-/L	8dd\L	.	.	.	.	.
8FF/J	.	8a/J	8cc\J	.	.	.	.	.
=90	=90	=90	=90	=90	=90	=90	=90	=90
!LO:TX:t=P:problem=mixed beam	!	!	!	!	!	!	!	!
8BB-\L	.	24dd'\LL	24dd|>\LL	.	.	.	.	.
.	.	24ee-'\	24ee-|>\	.	.	.	.	.
.	.	24ff'\JJ	24ff|>\JJ	.	.	.	.	.
8E-\	.	24gg'\LL	24gg'\LL	.	.	.	.	.
.	.	24aa'\	24aa'\	.	.	.	.	.
.	.	24bb-'\JJ	24bb-'\JJ	.	.	.	.	.
8F\	.	8b-/L	8dd\L	.	.	.	.	.
8FF/J	.	8a/J	8cc\J	.	.	.	.	.
=91	=91	=91	=91	=91	=91	=91	=91	=91
8BB-/L	.	8b-/L	8b-/L	.	2r	.	2r	.
8FF/	.	16f/L	16f/L	.	.	.	.	.
.	.	16d/JJ	16d/JJ	.	.	.	.	.
8BB-/J	.	8B-/	8B-/	.	.	.	.	.
!	!	!LO:TX:t=P:problem=pojedyncza kreska taktowa	!	!	!	!	!	!
8r	.	8r	8r	.	.	.	.	.
=92||	=92||	=92||	=92||	=92||	=92||	=92||	=92||	=92||
*>B	*	*>B	*>B	*	*>B	*	*>B	*
!	!	!	!	!	!	!	!LO:N:vis=8	!
8BB-/L	.	8b-\L	8dd\L	.	8dd\	ſit	[8.ff\	ſit
8BB-/	.	8b-\	8dd\	.	8dd\	ſem-	.	.
.	.	.	.	.	.	.	16ff\]	.
8BB-/	.	8b-\	8dd\	.	8dd\	-per	8ff\	ſem-
8BB-/J	.	8b-\J	8dd\J	.	8dd\	Laus	8ff\	-per
!	!	!LO:LB:g=original	!	!	!	!	!	!
=93	=93	=93	=93	=93	=93	=93	=93	=93
8BB-/L	.	4dd\	4ff\	.	4dd\	Laus	(4ff\	Lauſ
8BB-/	.	.	.	.	.	.	.	.
.	.	16qqdd/	16qqff/	.	.	.	.	.
8BB-/	.	16.ee-\LL	16ee-\LL	.	4cc\	.	4ee-\)	.
.	.	.	16cc\JJ	.	.	.	.	.
.	.	32cc\JJk	.	.	.	.	.	.
8BB-/J	.	24a/LL	24a/LL	.	.	.	.	.
.	.	24f/	24f/	.	.	.	.	.
!	!	!	!LO:TX:t=P:LO:SIC:v:s= ?:problem	!	!	!	!	!
.	.	24d/JJ	24e-/JJ	.	.	.	.	.
=94	=94	=94	=94	=94	=94	=94	=94	=94
!	!	!	!	!	!LO:N:vis=4	!	!	!
8BB-/L	.	8c/L	8e-/L	.	8cc\L	DE-	8ee-|>\L	De-
!	!	!	!	!	!LO:N:vis=4	!	!	!
8BB-/	.	8B-/J	8d/J	.	8b-\J	-O	8dd|>\J	-o
8BB-/	.	4r	4r	.	4r	.	4r	.
8BB-/J	.	.	.	.	.	.	.	.
!	!	!	!LO:LB:g=original	!	!	!	!	!
=95	=95	=95	=95	=95	=95	=95	=95	=95
4E-\	.	8g/L	8.gg\L	.	8.ee-\L	ſit	8.gg\L	ſit
.	.	8g/	.	.	.	.	.	.
.	.	.	16ee-\Jk	.	16cc\Jk	.	16ee-\Jk	.
4r	.	8g/	8.ee-\L	.	8.cc\L	sem-	8.ee-\L	ſem-
.	.	8g/J	.	.	.	.	.	.
.	.	.	16cc\Jk	.	16a\Jk	.	16cc\Jk	.
!	!	!	!	!	!LO:LB:g=original	!	!LO:LB:g=original	!
=96	=96	=96	=96	=96	=96	=96	=96	=96
!	!	!	!	!	!LO:TX:t=P:problem=mixed beam	!	!	!
2r	.	4g/	8.cc\L	.	8.a\L	-per	8.cc\L	-per
.	.	.	16a\Jk	.	16c/Jk	.	16a\Jk	.
.	.	4r	8.a/L	.	8c/L	Laus	8a\L	Laus
.	.	.	.	.	8d/J	.	8b-\J	.
.	.	.	16b-/Jk	.	.	.	.	.
=97	=97	=97	=97	=97	=97	=97	=97	=97
8BB-/L	.	16c/LL	16b-\LL	.	(16d/LL	DE-	16b-\LL	De-
.	.	16c/JJ	16a\JJ	.	16c/JJ)	.	16a\JJ	.
8BB-/	.	4d/	4b-\	.	4d/	-O	4b-\	-o
8BB-/	.	.	.	.	.	.	.	.
8BB-/J	.	8d/	8b-\	.	8d/	no-	(8b-\	no-
=98	=98	=98	=98	=98	=98	=98	=98	=98
8BB-/L	.	8f/L	8ff\	.	8dd\	.	8ff\	.
8BB-/	.	8f/	4ee-\	.	4cc\	.	4ee-\)	.
8BB-/	.	8f/	.	.	.	.	.	.
8BB-/J	.	8f/J	8dd\	.	8b-\	.	8dd\	.
!LO:LB:g=original	!	!	!	!	!	!	!	!
=99	=99	=99	=99	=99	=99	=99	=99	=99
8BB-/L	.	8f/L	8dd\	.	8b-\	.	8dd\	.
8C/	6	8a/	4cc\	.	4a\	.	4cc\	.
8C/	6	8a/	.	.	.	.	.	.
8C/J	5	8g/J	8b-\	.	8g\	.	[8b-\	.
=100	=100	=100	=100	=100	=100	=100	=100	=100
8D\L	#	8g/L	8b-/L	.	8g/	.	8b-\]	.
8D\	.	8f#X/J	8a/J	.	8f#X/	-stro	8a\	-stro
8D\	.	4r	4r	.	4r	.	4r	.
8D\J	.	.	.	.	.	.	.	.
=101	=101	=101	=101	=101	=101	=101	=101	=101
!	!	!	!LO:N:vis=4	!	!	!	!	!
8D\L	.	8d/ 8a 8ff#X	8d/ 8a 8ff#X	.	(8f#X/L	.	(8a\L	.
8D\	.	8r	8r	.	8a/J)	ſit	8cc\J)	sit
8D\	.	4r	4r	.	8g\	ſem-	8b-\	ſem-
8D\J	.	.	.	.	8b-\	-per	8dd\	-per
!	!	!	!	!	!LO:LB:g=original	!	!LO:LB:g=original	!
=102	=102	=102	=102	=102	=102	=102	=102	=102
!	!	!	!LO:TX:a:t=5	!	!	!	!	!
8D\	7	0r	0r	.	8a\	Laus	8cc\	Laus
8r	.	.	.	.	4cc\	.	4ee-\	.
4r	.	.	.	.	.	.	.	.
.	.	.	.	.	8g\	.	8b-\	.
=103	=103	=103	=103	=103	=103	=103	=103	=103
8D/L	.	.	.	.	8g\	DE-	8b-\	DE-
!	!	!	!	!	!	!	!LO:TX:t=P:problem=pion harmoniczny	!
8DD/J	.	.	.	.	8f#X/	-O	8g\	-O
8GG/L	.	.	.	.	4b-\	In	4gg\	In
8GG/J	.	.	.	.	.	.	.	.
=104	=104	=104	=104	=104	=104	=104	=104	=104
4GG/	.	.	.	.	4b-\	Sa(e)-	4gg\	sa(e)-
4r	.	.	.	.	8dd\	-cu-	8ffn\L	-cu-
.	.	.	.	.	8cc\	-la	8ee-\J	.
=105	=105	=105	=105	=105	=105	=105	=105	=105
8G\L	.	.	.	.	8b-\	Sa(e)-	(8dd\L	-la
8A\	.	.	.	.	8a\	-cu-	8cc\J)	.
8B-\	.	.	.	.	8g/	-lo-	8b-\L	sa(e)c-
8A\J	.	.	.	.	8f#X/	-rum	8a\J	.
=106	=106	=106	=106	=106	=106	=106	=106	=106
8G\L	.	2r	2r	.	8g\L	.	(8b-\L	-u-
8BB-\	.	.	.	.	8b-\J	a-	8dd\J)	.
8AA\	.	.	.	.	8a\	.	8ff#X\	-lo-
8C\J	.	.	.	.	8b-\	.	8gg\	-rum
!	!	!LO:LB:g=original	!	!	!	!	!	!
=107	=107	=107	=107	=107	=107	=107	=107	=107
4D;\	.	2d;;/	2d;;/	.	4g/	-men	4b-;;\	a-
!	!	!	!	!	!LO:LB:g=original	!	!	!
=-	=-	=-	=-	=-	=-	=-	=-	=-
4DD;</	.	.	.	.	4f#;;/	a-	4a\	.
!LO:LB:g=original	!	!	!	!	!	!	!	!
=108	=108	=108	=108	=108	=108	=108	=108	=108
8G\L	.	8g/L	8g/L	.	8g\	-men.	8g\	-men.
8D\J	.	16d/L	16d/L	.	8r	.	8r	.
.	.	16B-/JJ	16B-/JJ	.	.	.	.	.
!LO:TX:b:i:t=Da Capo.	!	!	!	!	!LO:TX:a:t=Da Capo	!	!	!
4GG/	.	8G/	8G/	.	4r	.	4r	.
!	!	!LO:TX:b:i:t=Da Capo.	!LO:TX:b:i:t=Da Capo Aria	!	!	!	!	!
.	.	8r	8r	.	.	.	.	.
==	==	==	==	==	==	==	==	==
*-	*-	*-	*-	*-	*-	*-	*-	*-
!!!system-decoration: [(s1,s2)][(s3,s4)]s5
!!!RDF**kern: < = below
!!!RDF**kern: > = above
!!!RDF**kern: | = vertical stroke
!!!RDF**dynam: f = "for"
!!!RDF**dynam: p = "Pia:"
!!!AIN: 1 organ 2 soprn 2 violn
!!!ENC: Mateusz Solarz
!!!END: 2021-01-25
!!!ENC: Marta Chmielewska
!!!END: 2022-01-12
